Numix/16/status/indicator-keyboard-Hi.svg

<?xml version="1.0" encoding="UTF-8" standalone="no"?>
<svg
   xmlns:dc="http://purl.org/dc/elements/1.1/"
   xmlns:cc="http://creativecommons.org/ns#"
   xmlns:rdf="http://www.w3.org/1999/02/22-rdf-syntax-ns#"
   xmlns:svg="http://www.w3.org/2000/svg"
   xmlns="http://www.w3.org/2000/svg"
   xmlns:sodipodi="http://sodipodi.sourceforge.net/DTD/sodipodi-0.dtd"
   xmlns:inkscape="http://www.inkscape.org/namespaces/inkscape"
   viewBox="0 0 16 16"
   id="svg2"
   version="1.1"
   inkscape:version="0.91 r13725"
   sodipodi:docname="indicator-keyboard-Hi.svg">
  <metadata
     id="metadata13">
    <rdf:RDF>
      <cc:Work
         rdf:about="">
        <dc:format>image/svg+xml</dc:format>
        <dc:type
           rdf:resource="http://purl.org/dc/dcmitype/StillImage" />
      </cc:Work>
    </rdf:RDF>
  </metadata>
  <defs
     id="defs11" />
  <sodipodi:namedview
     pagecolor="#ffffff"
     bordercolor="#666666"
     borderopacity="1"
     objecttolerance="10"
     gridtolerance="10"
     guidetolerance="10"
     inkscape:pageopacity="0"
     inkscape:pageshadow="2"
     inkscape:window-width="640"
     inkscape:window-height="480"
     id="namedview9"
     showgrid="false"
     inkscape:zoom="14.75"
     inkscape:cx="8"
     inkscape:cy="8"
     inkscape:window-x="65"
     inkscape:window-y="24"
     inkscape:window-maximized="0"
     inkscape:current-layer="svg2" />
  <path
     style="fill:#ececec;fill-opacity:1"
     d="M 1.5996094 0 C 0.71320937 2.9605947e-16 0 0.71320937 0 1.5996094 L 0 14.400391 C 2.9605947e-16 15.286791 0.71320937 16 1.5996094 16 L 14.400391 16 C 15.286791 16 16 15.286791 16 14.400391 L 16 1.5996094 C 16 0.71320937 15.286791 0 14.400391 0 L 1.5996094 0 z M 11.021484 4.7460938 C 11.141484 4.7460938 11.244125 4.7890469 11.328125 4.8730469 C 11.412125 4.9510469 11.453125 5.0592656 11.453125 5.1972656 C 11.453125 5.3352656 11.412125 5.4452969 11.328125 5.5292969 C 11.244125 5.6072969 11.141484 5.6464844 11.021484 5.6464844 C 10.901484 5.6464844 10.798844 5.6072969 10.714844 5.5292969 C 10.630844 5.4452969 10.589844 5.3352656 10.589844 5.1972656 C 10.589844 5.0592656 10.630844 4.9510469 10.714844 4.8730469 C 10.798844 4.7890469 10.901484 4.7460938 11.021484 4.7460938 z M 4.546875 5.015625 L 5.1582031 5.015625 L 5.1582031 7.7246094 L 8.5429688 7.7246094 L 8.5429688 5.015625 L 9.1542969 5.015625 L 9.1542969 11.253906 L 8.5429688 11.253906 L 8.5429688 8.2558594 L 5.1582031 8.2558594 L 5.1582031 11.253906 L 4.546875 11.253906 L 4.546875 5.015625 z M 10.732422 6.5996094 L 11.318359 6.5996094 L 11.318359 11.253906 L 10.732422 11.253906 L 10.732422 6.5996094 z "
     id="path4" />
</svg>

<svg xmlns="http://www.w3.org/2000/svg" viewBox="0 0 16 16">
 <path d="m 1.6 0 c -0.886 0 -1.6 0.713 -1.6 1.6 l 0 12.801 c 0 0.886 0.713 1.6 1.6 1.6 l 12.801 0 c 0.886 0 1.6 -0.713 1.6 -1.6 l 0 -12.801 c 0 -0.886 -0.713 -1.6 -1.6 -1.6 l -12.801 0 z m 9.422 4.746 c 0.12 0 0.223 0.043 0.307 0.127 c 0.084 0.078 0.125 0.186 0.125 0.324 c 0 0.138 -0.041 0.248 -0.125 0.332 c -0.084 0.078 -0.187 0.117 -0.307 0.117 c -0.12 0 -0.223 -0.039 -0.307 -0.117 c -0.084 -0.084 -0.125 -0.194 -0.125 -0.332 c 0 -0.138 0.041 -0.246 0.125 -0.324 c 0.084 -0.084 0.187 -0.127 0.307 -0.127 z m -6.475 0.27 l 0.611 0 l 0 2.709 l 3.385 0 l 0 -2.709 l 0.611 0 l 0 6.238 l -0.611 0 l 0 -2.998 l -3.385 0 l 0 2.998 l -0.611 0 l 0 -6.238 z m 6.186 1.584 l 0.586 0 l 0 4.654 l -0.586 0 l 0 -4.654 z" style="fill:#ececec;fill-opacity:1"/>
</svg>
